assets/Busts in silhouette/Flat/busts_in_silhouette_flat.svg

<svg width="32" height="32" viewBox="0 0 32 32" fill="none" xmlns="http://www.w3.org/2000/svg">
<path d="M15.8402 23.93C15.8999 23.9749 15.9577 24.022 16.0135 24.0712C16.0705 24.022 16.1294 23.9749 16.1902 23.93C18.0463 22.6378 20.2536 21.9451 22.5152 21.9451C24.7768 21.9451 26.9841 22.6378 28.8402 23.93C29.2052 24.2047 29.5004 24.5615 29.702 24.9715C29.9035 25.3815 30.0057 25.8332 30.0002 26.29V30H2.00018V26.32C1.99504 25.8558 2.10024 25.3971 2.30714 24.9816C2.51403 24.5661 2.81669 24.2056 3.19018 23.93C5.04626 22.6378 7.25359 21.9451 9.51518 21.9451C11.7768 21.9451 13.9841 22.6378 15.8402 23.93Z" fill="#321B41"/>
<path d="M10.6699 7.93003H8.3699C7.76062 7.92554 7.15752 8.05241 6.60169 8.30202C6.04587 8.55162 5.55036 8.91809 5.14894 9.37645C4.74751 9.83482 4.44958 10.3743 4.27546 10.9582C4.10133 11.5421 4.0551 12.1567 4.1399 12.76L4.2072 13.7816C3.39247 13.9123 2.77002 14.6184 2.77002 15.47C2.77002 16.398 3.50928 17.1534 4.43103 17.1793L4.5299 18.68C4.6581 19.6513 5.13404 20.5432 5.86953 21.1904C6.38904 21.6476 7.01316 21.9608 7.68018 22.1066V23.04C7.68018 23.5201 7.87087 23.9805 8.21031 24.3199C8.54975 24.6593 9.01013 24.85 9.49018 24.85C9.97022 24.85 10.4306 24.6593 10.77 24.3199C11.1095 23.9805 11.3002 23.5201 11.3002 23.04V22.1171C11.9858 21.9762 12.6279 21.6589 13.1603 21.1904C13.8958 20.5432 14.3717 19.6513 14.4999 18.68L14.5938 17.1775C15.1935 17.1451 15.711 16.8037 15.99 16.3097C16.2759 16.8159 16.8124 17.1619 17.431 17.1793L17.5299 18.68C17.6581 19.6513 18.134 20.5432 18.8695 21.1904C19.389 21.6476 20.0132 21.9608 20.6802 22.1066V23.04C20.6802 23.5201 20.8709 23.9805 21.2103 24.3199C21.5498 24.6593 22.0101 24.85 22.4902 24.85C22.9702 24.85 23.4306 24.6593 23.77 24.3199C24.1095 23.9805 24.3002 23.5201 24.3002 23.04V22.1171C24.9858 21.9762 25.6279 21.6589 26.1603 21.1904C26.8958 20.5432 27.3717 19.6513 27.4999 18.68L27.5938 17.1775C28.4946 17.1288 29.21 16.3829 29.21 15.47C29.21 14.6299 28.6043 13.9313 27.8057 13.7872L27.8699 12.76C27.951 12.1597 27.9031 11.549 27.7294 10.9687C27.5557 10.3884 27.2603 9.85176 26.8628 9.39466C26.4653 8.93755 25.975 8.57047 25.4244 8.31791C24.8738 8.06535 24.2756 7.93312 23.6699 7.93003H21.3699C20.7606 7.92554 20.1575 8.05241 19.6017 8.30202C19.0459 8.55162 18.5504 8.91809 18.1489 9.37645C17.7475 9.83482 17.4496 10.3743 17.2755 10.9582C17.1013 11.5421 17.0551 12.1567 17.1399 12.76L17.2072 13.7816C16.6844 13.8655 16.2408 14.1862 15.99 14.6303C15.7445 14.1956 15.3142 13.879 14.8057 13.7872L14.8699 12.76C14.951 12.1597 14.9031 11.549 14.7294 10.9687C14.5557 10.3884 14.2603 9.85176 13.8628 9.39466C13.4653 8.93755 12.975 8.57047 12.4244 8.31791C11.8738 8.06535 11.2756 7.93312 10.6699 7.93003Z" fill="#533566"/>
</svg>

<svg xmlns="http://www.w3.org/2000/svg" width="32" height="32" fill="none"><path fill="#321B41" d="M15.84 23.93c.06.045.118.092.174.141.056-.049.115-.096.176-.141a11.07 11.07 0 0 1 12.65 0A2.911 2.911 0 0 1 30 26.29V30H2v-3.68a2.93 2.93 0 0 1 1.19-2.39 11.07 11.07 0 0 1 12.65 0Z"/><path fill="#533566" d="M10.67 7.93h-2.3a4.24 4.24 0 0 0-4.23 4.83l.067 1.022a1.71 1.71 0 0 0 .224 3.397l.099 1.501a4.05 4.05 0 0 0 3.15 3.427v.933a1.81 1.81 0 1 0 3.62 0v-.923a4.05 4.05 0 0 0 3.2-3.437l.094-1.503a1.71 1.71 0 0 0 1.396-.867 1.71 1.71 0 0 0 1.441.87l.099 1.5a4.05 4.05 0 0 0 3.15 3.427v.933a1.81 1.81 0 1 0 3.62 0v-.923a4.05 4.05 0 0 0 3.2-3.437l.094-1.503a1.71 1.71 0 0 0 .212-3.39l.064-1.027a4.259 4.259 0 0 0-4.2-4.83h-2.3a4.24 4.24 0 0 0-4.23 4.83l.067 1.022a1.712 1.712 0 0 0-1.217.848 1.712 1.712 0 0 0-1.184-.843l.064-1.027a4.259 4.259 0 0 0-4.2-4.83Z"/></svg>
